X:1
T:Air de Pauline
T:Air de Pauline
%%score 1 2 { 3 | 4 }
L:1/8
Q:1/4=80
M:4/4
K:F
V:1 treble nm="Hautbois" snm="Htbs."
V:2 treble transpose=-2 nm="Clarinette en Si♭" snm="Clar. Si♭"
V:3 treble nm="Piano" snm="Pia."
V:4 bass 
V:1
 z8 | z8 | z8 | z2 z2 ^C4 | F3 E E2 z2 | z2 z2 z2 z D | D4- D G D E | F3 E D2 z D | D4- D B ^F G | %9
 A3 B A2 z A | d4- d d c B | A3/2 B/ A2 z E F G | A ^C D E F4- | F3 F E3 F | D2 z2 z z z D | %15
 D4- D G D E | F3 E D2 z D | D4- D B ^F G | A3 B A2 z A | f4- f e d c | c3 c d G A B | A3 A _e3 e | %22
 _e d c B A2 G2 | z2 z F E3 D | B A ^C D F4- | F4 E4 | D2 z2 z2 z D | D4- D G D E | F3 E D2 z D | %29
 D4- D B ^F G | A3 B A2 z A | B G A B c3 c | ^c A =B c d3 d | _e ^F A e d3 d | g4 g f e d | %35
 c B A G F E z D | A4 D2 z D | F4 ^G,2 z G, | B,8- | B,4 A,4 | D4- D z z2 |] %41
V:2
[K:G] z8 | z8 | z8 | z2 z2 ^D4 | G3 F F2 z2 | z2 z2 z2 z E | E4- EAEF | G3 F E2 z E | E4- Ec^GA | %9
 B3 c B2 z B | e4- eedc | B>c B2 z FGA | B^DEF G4- | G3 G F3 G | E2 z2 z z z E | E4- EAEF | %16
 G3 F E2 z E | E4- Ec^GA | B3 c B2 z B | g4- gfed | d3 d eABc | B3 B =f3 f | =fedc B2 A2 | %23
 z2 z G F3 E | cB^DE G4- | G4 F4 | E2 z2 z2 z E- | E/E/E E2 EAEF | G3 F E2 z E | E4- Ec^GA | %30
 B3 c B2 z B | cABc d3 d | ^dB^cd e3 e | =f^GBf e3 e | a4 agfe | dcBA GF z E | B4 E2 z E | %37
 G4 ^A,2 z A, | C8- | C4 B,4 | E,4- E, z z2 |] %41
V:3
 (10:4:10z/ z/ z/ z/ D/F/A/d/f/a/ (10:4:10d'/a/f/d/A/F/D/ z/ z/ z/ z z [A,DFAdfad'] z | %1
 (13:4:13z/ z/ z/ z/ =B,/D/F/^G/=B/d/f/^g/=b/ (13:4:13d'/b/g/f/d/B/G/F/D/C/ z/ z/ z/ z2 [A,DFGdfgbd'] z | %2
 [A,DF=Bd^g=bf'] z (12:4:12z/ z/ z/ z/ ^C/E/A/^c/e/a/^c'/e'/ (10:4:10a'/g'/e'/c'/a/=g/e/c/A/G/ (10:4:10E/C/ z/ z/ z/ z/ z/ z/ z/ z/ | %3
 z2 [G^cea] z z4 | z8 | D z D z D z D z | [B,D] z [B,D] z [B,D] z [B,D] z | D z D z D z D z | %8
 [B,D] z [B,D] z [B,D] z [B,D] z | [CD] z [CD] z [CD] z [CD] z | D z D z E z E z | %11
 [CF] z [CF] z [B,DE] z [B,DE] z | D z D z [^G,=B,D] z [G,B,D] z | %13
 [G,B,D] z [G,B,D] z [G,A,^C] z [G,A,C] z | D z D z D z D z | [B,D] z [B,D] z [B,D] z [B,D] z | %16
 D z D z D z D z | [B,D] z [B,D] z [B,D] z [B,D] z | D z D z F z F z | F z F z F z F z | %20
 [G,B,E] z [G,B,E] z [B,C] z [B,C] z | C z C z C z C z | z8 | [B,D] z [B,D] z [B,D] z [B,D] z | %24
 D z D z [=B,D] z [B,D] z | [B,D] z [B,D] z ^C z C z | D z D z D z D z | %27
 [B,D] z [B,D] z [B,D] z [B,D] z | D z D z D z D z | [B,D] z [B,D] z [B,D] z [B,D] z | %30
 [CD] z [CD] z [CD] z [CD] z | [B,D] z [B,D] z [A,CE] z [A,CE] z | %32
 [G,A,^CG] z [G,A,CG] z [DF] z [DF] z | [_E^F] z [EF] z [DG] z [A,DFA] z | %34
 [B,DGB] z [B,DGB] z [G,DG] z [G,DG] z | D z D z [B,D] z [B,D] z | D z D z D z D z | %37
 [=B,D] z [B,D] z [B,D] z [B,D] z | [B,D] z [B,D] z [B,D] z [B,D] z | [B,^C] z [B,C] z C z C z | %40
 D2 z2 z4 |] %41
V:4
 (10:4:10A,,/D,/F,/A,/ z/ z/ z/ z/ z/ z/ (10:4:10z/ z/ z/ z/ z/ z/ z/ A,/F,/D,/ A,, z z2 | %1
 (13:4:13A,,/D,/F,/^G,/ z/ z/ z/ z/ z/ z/ z/ z/ z/ (13:4:13z/ z/ z/ z/ z/ z/ z/ z/ z/ z/ G,/F,/D,/ A,, z z2 | %2
 z2 (12:4:12A,,/^C,/E,/A,/ z/ z/ z/ z/ z/ z/ z/ z/ (10:4:10z/ z/ z/ z/ z/ z/ z/ z/ z/ z/ (10:4:10z/ z/ A,/G,/E,/C,/A,,/G,,/E,,/C,,/ | %3
 A,,, z [A,,E,A,^C] z z4 | z8 | [D,,D,F,A,] z [D,,D,F,A,] z [D,,D,F,A,] z [D,,D,F,A,] z | %6
 [D,,D,E,G,] z [D,,D,E,G,] z [D,,D,E,G,] z [D,,D,E,G,] z | %7
 [D,,D,F,A,] z [D,,D,F,A,] z [D,,D,F,A,] z [D,,D,F,A,] z | %8
 [D,,D,E,G,] z [D,,D,E,G,] z [D,,D,E,G,] z [D,,D,E,G,] z | %9
 [D,,D,^F,A,] z [D,,D,F,A,] z [D,,D,F,A,] z [D,,D,F,A,] z | %10
 [D,,D,G,B,] z [D,,D,G,B,] z [C,,C,G,B,] z [C,,C,G,B,] z | %11
 [F,,,F,,F,A,] z [F,,,F,,F,A,] z [G,,,G,,E,] z [G,,,G,,E,] z | %12
 [A,,,A,,F,A,] z [A,,,A,,F,A,] z [A,,,A,,] z [A,,,A,,] z | %13
 [A,,,A,,] z [A,,,A,,] z [A,,,A,,] z [A,,,A,,] z | %14
 [D,,D,F,A,] z [D,,D,F,A,] z [D,,D,F,A,] z [D,,D,F,A,] z | %15
 [D,,D,E,G,] z [D,,D,E,G,] z [D,,D,E,G,] z [D,,D,E,G,] z | %16
 [D,,D,F,A,] z [D,,D,F,A,] z [D,,D,F,A,] z [D,,D,F,A,] z | %17
 [D,,D,E,G,] z [D,,D,E,G,] z [D,,D,E,G,] z [D,,D,E,G,] z | %18
 [D,,D,F,A,] z [D,,D,F,A,] z [_D,,_D,F,A,] z [D,,D,F,A,] z | %19
 [C,,C,F,A,] z [C,,C,F,A,] z [C,,C,F,A,] z [C,,C,F,A,] z | %20
 [C,,C,] z [C,,C,] z [E,,,E,,C,G,] z [E,,,E,,C,G,] z | %21
 [F,,,F,,C,F,A,] z [F,,,F,,C,F,A,] z [^F,,,^F,,_E,A,] z [F,,,F,,E,A,] z | %22
 [G,,,G,,D,G,B,] z [G,,,G,,D,G,B,] z [G,,,G,,D,G,B,] z [G,,,G,,D,G,B,] z | %23
 [^G,,,^G,,D,F,] z [G,,,G,,D,F,] z [G,,,G,,D,F,] z [G,,,G,,D,F,] z | %24
 [A,,,A,,D,F,A,] z [A,,,A,,D,F,A,] z [A,,,A,,^G,] z [A,,,A,,G,] z | %25
 [A,,,A,,G,] z [A,,,A,,G,] z [A,,,A,,G,A,] z [A,,,A,,G,A,] z | %26
 [D,,D,F,A,] z [D,,D,F,A,] z [D,,D,F,A,] z [D,,D,F,A,] z | %27
 [D,,D,E,G,] z [D,,D,E,G,] z [D,,D,E,G,] z [D,,D,E,G,] z | %28
 [D,,D,F,A,] z [D,,D,F,A,] z [D,,D,F,A,] z [D,,D,F,A,] z | %29
 [D,,D,E,G,] z [D,,D,E,G,] z [D,,D,E,G,] z [D,,D,E,G,] z | %30
 [D,,D,F,A,] z [D,,D,F,A,] z [D,,D,F,A,] z [D,,D,F,A,] z | %31
 [G,,G,] z [G,,G,] z [F,,F,] z [F,,F,] z | [E,,E,] z [E,,E,] z [D,,D,F,A,] z [D,,D,F,A,] z | %33
 [C,,C,^F,A,] z [C,,C,F,A,] z [B,,,B,,G,] z [A,,,A,,] z | %34
 [G,,,G,,] z [G,,D,G,] z [D,,B,,D,] z [D,,B,,D,] z | %35
 [B,,,G,,B,,D,G,] z [B,,,G,,B,,D,G,] z [G,,,G,,D,G,] z [^G,,,^G,,D,F,] z | %36
 [A,,,A,,D,F,A,] z [A,,,A,,D,F,A,] z [A,,,A,,D,F,A,] z [A,,,A,,D,F,A,] z | %37
 [A,,,A,,F,^G,] z [A,,,A,,F,G,] z [A,,,A,,F,G,] z [A,,,A,,F,G,] z | %38
 [G,,,A,,E,G,] z [G,,,A,,E,G,] z [G,,,A,,E,G,] z [G,,,A,,E,G,] z | %39
 [G,,,A,,E,G,] z [G,,,A,,E,G,] z [G,,,A,,E,G,A,] z [G,,,A,,E,G,A,] z | [D,,D,F,A,]2 z2 z4 |] %41

